usr/share/icons/biglinux-icons-material/24/actions/text-flow-into-frame.svg

<svg xmlns="http://www.w3.org/2000/svg" viewBox="0 0 24 24"><path d="M4 4v16h8v-1H5V5h14v8h1V4H4zm2 2v1h12V6H6zm0 2v1h9V8H6zm0 3v1h12v-1H6zm0 2v1h4v-1H6zm0 3v1h9v-1H6zm7 2v1h3v-1h-3z" style="fill:currentColor;fill-opacity:1;stroke:none;color:#dedede"/><path d="M12 13v1h4.5a2.495 2.495 0 0 1 1.5 4.49V17h-1v3h3v-1h-1.076A3.449 3.449 0 0 0 20 16.5c0-1.939-1.561-3.5-3.5-3.5H12z" style="fill:currentColor;fill-opacity:1;stroke:none;color:#3daee9"/></svg>

<svg xmlns="http://www.w3.org/2000/svg" viewBox="0 0 24 24">
  <defs id="defs3051">
    <style type="text/css" id="current-color-scheme">
      .ColorScheme-Text {
        color:#dedede;
      }
      .ColorScheme-Highlight {
        color:#3daee9;
      }
      </style>
  </defs>
 <path 
     style="fill:currentColor;fill-opacity:1;stroke:none" 
     d="M 4 4 L 4 20 L 12 20 L 12 19 L 5 19 L 5 5 L 19 5 L 19 13 L 20 13 L 20 4 L 4 4 z M 6 6 L 6 7 L 18 7 L 18 6 L 6 6 z M 6 8 L 6 9 L 15 9 L 15 8 L 6 8 z M 6 11 L 6 12 L 18 12 L 18 11 L 6 11 z M 6 13 L 6 14 L 10 14 L 10 13 L 6 13 z M 6 16 L 6 17 L 15 17 L 15 16 L 6 16 z M 13 18 L 13 19 L 16 19 L 16 18 L 13 18 z "
     class="ColorScheme-Text"
     />
 <path 
     style="fill:currentColor;fill-opacity:1;stroke:none" 
     d="M 12 13 L 12 14 L 16 14 L 16.5 14 C 17.885 14 19 15.115 19 16.5 C 19 17.3187 18.60449 18.035134 18 18.490234 L 18 17 L 17 17 L 17 18.949219 L 17 19 L 17 19.951172 L 17 20 L 18 20 L 20 20 L 20 19 L 18.923828 19 C 19.581798 18.3681 20 17.4903 20 16.5 C 20 14.561 18.439 13 16.5 13 L 12 13 z "
     class="ColorScheme-Highlight"
     />
</svg>
